packages/ui/public/icons/profile-verified-small-icon.svg

<svg width="14" height="15" viewBox="0 0 14 15" fill="none" xmlns="http://www.w3.org/2000/svg">
<path d="M7 0.5L8.51554 3.125H5.48446L7 0.5Z" fill="white"/>
<path d="M11.9498 2.54994L11.1653 5.47774L9.02203 3.33444L11.9498 2.54994Z" fill="white"/>
<path d="M14 7.5L11.375 9.01554V5.98446L14 7.5Z" fill="white"/>
<path d="M11.9496 12.4503L9.02177 11.6658L11.1651 9.52252L11.9496 12.4503Z" fill="white"/>
<path d="M7 14.5L5.48446 11.875H8.51554L7 14.5Z" fill="white"/>
<path d="M2.05016 12.4501L2.83466 9.52226L4.97797 11.6656L2.05016 12.4501Z" fill="white"/>
<path d="M0 7.5L2.625 5.98446L2.625 9.01554L0 7.5Z" fill="white"/>
<path d="M2.05043 2.54967L4.97823 3.33418L2.83493 5.47748L2.05043 2.54967Z" fill="white"/>
<circle cx="7" cy="7.5" r="3.25" fill="white"/>
</svg>

<svg width="14" height="15" fill="none" xmlns="http://www.w3.org/2000/svg"><path d="m7 .5 1.516 2.625H5.484L7 .5ZM11.95 2.55l-.785 2.928-2.143-2.144 2.928-.784ZM14 7.5l-2.625 1.516V5.984L14 7.5ZM11.95 12.45l-2.928-.784 2.143-2.143.785 2.927ZM7 14.5l-1.516-2.625h3.032L7 14.5ZM2.05 12.45l.785-2.928 2.143 2.144-2.928.784ZM0 7.5l2.625-1.516v3.032L0 7.5ZM2.05 2.55l2.928.784-2.143 2.143L2.05 2.55Z" fill="#fff"/><circle cx="7" cy="7.5" r="3.25" fill="#fff"/></svg>
